melody1: note(`
             f#3@64 g3@64 c4@64 ~ ~ f#3@64 g#3@64 b3@64 a3@60 ~ ~ f#3@64 g3@64 c4@64 a3@32 b3@96 ~ ~
    `.add(24)).s("square")
  .slow(3)
  // .seg(16)
  .clip(1.1)
  .room(2).hpf(1400).sus(1.4)
  // .fm(.2).fmh(.9)
  .dec(12).att(.04)
  .delay(.2)
  .postgain(.5)
  .bpf(4000)
  .bpenv(3)